X:23
T: ES WAREN ZWEI KOENIGSKINDER
N: Z0024
O: Europa, Mitteleuropa, Deutschland
R: Sagen - Lied, Romanze
M: 2/4
L: 1/16
K: G
D2 | G2GGB3G | G2F2F2
D2 | A2AAc2AA | G4z2
GB | d2ddd2cc | B4dc
BA | G2GGBAGA | B4
A4 | B2dddcBA | G4z2

